brandFactory_export/3.Masa/Bajada dinero_3Masa.svg

<?xml version="1.0" encoding="UTF-8"?>
<svg width="24px" height="24px" viewBox="0 0 24 24" version="1.1" xmlns="http://www.w3.org/2000/svg" xmlns:xlink="http://www.w3.org/1999/xlink">
    <title>3.Masa/Bajada dinero_3Masa</title>
    <g id="Symbols" stroke="none" stroke-width="1" fill="none" fill-rule="evenodd">
        <g id="3.Masa/Bajada-dinero_3Masa" fill="#5CB615" fill-rule="nonzero">
            <path d="M0.917647059,6.31932773 C0.917647059,5.90252101 1.25042017,5.56638655 1.65714286,5.56638655 L2.10756303,5.56638655 C2.09411765,5.39159664 2.07058824,5.2302521 2.07058824,5.04537815 C2.07058824,4.99495798 2.08067227,4.95462185 2.08067227,4.90420168 L1.65714286,4.90420168 C1.24705882,4.90420168 0.917647059,4.56806723 0.917647059,4.1512605 C0.917647059,3.73445378 1.25042017,3.39831933 1.65714286,3.39831933 L2.27563025,3.39831933 C2.8,1.22689076 4.41680672,0.0369747899 6.99495798,0.0369747899 C7.95630252,0.0369747899 8.79663866,0.205042017 9.49579832,0.531092437 C9.86554622,0.705882353 10.0302521,1.15294118 9.85882353,1.52941176 C9.68739496,1.9092437 9.24705882,2.07394958 8.87731092,1.89915966 C8.37647059,1.66386555 7.74117647,1.54285714 6.99831933,1.54285714 C5.28403361,1.54285714 4.24201681,2.14453782 3.80504202,3.39831933 L6.25210084,3.39831933 C6.66218487,3.39831933 6.99159664,3.73445378 6.99159664,4.1512605 C6.99159664,4.56806723 6.65882353,4.90420168 6.25210084,4.90420168 L3.56638655,4.90420168 C3.56638655,4.95462185 3.55630252,4.99495798 3.55630252,5.04537815 C3.55630252,5.23361345 3.57647059,5.39831933 3.58655462,5.56638655 L6.2487395,5.56638655 C6.65882353,5.56638655 6.98823529,5.90252101 6.98823529,6.31932773 C6.98823529,6.73613445 6.65546218,7.07226891 6.2487395,7.07226891 L3.9697479,7.07226891 C4.48067227,8.06386555 5.46890756,8.54453782 6.99831933,8.54453782 C7.75462185,8.54453782 8.39327731,8.42352941 8.89411765,8.18151261 C9.26722689,8.00336134 9.70420168,8.16806723 9.8789916,8.54117647 C10.0537815,8.91764706 9.89579832,9.36806723 9.52605042,9.54285714 C8.82352941,9.8789916 7.97310924,10.0504202 6.99495798,10.0504202 C4.56806723,10.0504202 2.98487395,9.00168067 2.36638655,7.06890756 L1.65714286,7.06890756 C1.24705882,7.07226891 0.917647059,6.73277311 0.917647059,6.31932773 Z M21.4453782,21.8386555 C22.0806723,21.6436975 22.1747899,21.4487395 22.1747899,21.4487395 L22.1747899,20.4268908 C22.0773109,20.4672269 21.9831933,20.5109244 21.8756303,20.5445378 C21.1563025,20.7663866 20.2151261,20.887395 19.2302521,20.887395 C18.2453782,20.887395 17.3042017,20.7663866 16.5815126,20.5445378 C16.4705882,20.5109244 16.3764706,20.4672269 16.2756303,20.4268908 L16.2756303,21.4554622 C16.2857143,21.4789916 16.3966387,21.6605042 17.0016807,21.8453782 C18.1915966,22.1983193 20.2621849,22.1983193 21.4453782,21.8386555 Z M14.0739496,21.8386555 C14.4571429,21.7210084 14.6857143,21.5663866 14.7966387,21.4588235 L14.7966387,20.3731092 C14.6991597,20.410084 14.6084034,20.4571429 14.5008403,20.487395 C13.7815126,20.7092437 12.8403361,20.8302521 11.8554622,20.8302521 C10.8705882,20.8302521 9.92941176,20.7092437 9.21008403,20.487395 C9.09579832,20.4537815 9.00168067,20.4067227 8.89747899,20.3663866 L8.89747899,21.4655462 C8.99159664,21.5563025 9.21008403,21.7042017 9.63361345,21.8352941 C10.8134454,22.1983193 12.8941176,22.1983193 14.0739496,21.8386555 L14.0739496,21.8386555 Z M6.69243697,21.8386555 C7.09915966,21.7142857 7.31764706,21.5529412 7.41512605,21.4554622 L7.41512605,20.389916 C7.31428571,20.4268908 7.22689076,20.4705882 7.11596639,20.5042017 C6.39327731,20.7260504 5.45546218,20.8470588 4.47058824,20.8470588 C3.48571429,20.8470588 2.54453782,20.7260504 1.82521008,20.5042017 C1.71092437,20.4705882 1.62016807,20.4235294 1.51596639,20.3831933 L1.51596639,21.4689076 C1.61008403,21.5596639 1.82857143,21.707563 2.25546218,21.8386555 C3.43193277,22.1983193 5.5092437,22.1983193 6.69243697,21.8386555 L6.69243697,21.8386555 Z M2.24537815,18.5915966 C1.9697479,18.6756303 1.80840336,18.7563025 1.70084034,18.8268908 C1.81176471,18.897479 1.98655462,18.9815126 2.25210084,19.0621849 C3.42521008,19.4252101 5.51596639,19.4218487 6.69243697,19.0621849 C6.96806723,18.9781513 7.12941176,18.897479 7.23697479,18.8268908 C7.12941176,18.7563025 6.96806723,18.6756303 6.68571429,18.5882353 C5.50588235,18.2319328 3.42184874,18.2319328 2.24537815,18.5915966 Z M9.62689076,15.8016807 C9.35462185,15.8857143 9.19327731,15.9663866 9.08235294,16.0369748 C9.18991597,16.107563 9.3512605,16.1882353 9.63361345,16.2756303 C10.810084,16.6352941 12.8941176,16.6352941 14.0705882,16.2756303 C14.3327731,16.194958 14.5042017,16.1142857 14.6184874,16.0436975 C14.5109244,15.9731092 14.3495798,15.8890756 14.0672269,15.805042 C12.8941176,15.4420168 10.8033613,15.4420168 9.62689076,15.8016807 Z M17.005042,13.0621849 C16.7327731,13.1462185 16.5714286,13.2268908 16.4605042,13.2941176 C16.5680672,13.3647059 16.7294118,13.4453782 17.0117647,13.5327731 C18.1848739,13.892437 20.2756303,13.892437 21.4487395,13.5327731 C21.7109244,13.4521008 21.8823529,13.3680672 21.9966387,13.3008403 C21.8890756,13.2302521 21.7243697,13.1462185 21.4453782,13.0621849 C20.2689076,12.702521 18.1848739,12.6991597 17.005042,13.0621849 L17.005042,13.0621849 Z M16.2789916,17.6336134 L16.2789916,18.7327731 C16.3731092,18.8235294 16.594958,18.9714286 17.0117647,19.0991597 C18.1848739,19.4588235 20.2756303,19.4588235 21.4487395,19.0991597 C21.8352941,18.9781513 22.0672269,18.8235294 22.1747899,18.7159664 L22.1747899,17.6336134 C22.0773109,17.6739496 21.9831933,17.7176471 21.8756303,17.7512605 C21.1495798,17.9731092 20.2117647,18.0941176 19.2302521,18.0941176 C18.2487395,18.0941176 17.307563,17.9731092 16.5848739,17.7512605 C16.4739496,17.7176471 16.3798319,17.6739496 16.2789916,17.6336134 L16.2789916,17.6336134 Z M16.5848739,14.9747899 C16.4705882,14.9411765 16.3798319,14.8941176 16.2756303,14.8537815 L16.2756303,15.9361345 C16.3697479,16.0268908 16.5882353,16.1747899 17.0151261,16.3092437 C18.1882353,16.6689076 20.2756303,16.6689076 21.4521008,16.3092437 C21.8621849,16.1848739 22.0806723,16.0235294 22.1781513,15.9260504 L22.1781513,14.8605042 C22.0773109,14.897479 21.989916,14.9411765 21.8789916,14.9747899 C21.1596639,15.1966387 20.2184874,15.3176471 19.2336134,15.3176471 C18.2453782,15.3176471 17.307563,15.1966387 16.5848739,14.9747899 L16.5848739,14.9747899 Z M8.89747899,18.6789916 C8.99159664,18.7697479 9.21008403,18.9176471 9.63697479,19.0487395 C10.810084,19.4084034 12.9008403,19.4084034 14.0739496,19.0487395 C14.4806723,18.9243697 14.6957983,18.7663866 14.7966387,18.6689076 L14.7966387,17.6 C14.6991597,17.6369748 14.6084034,17.6806723 14.5008403,17.7142857 C13.7781513,17.9361345 12.8369748,18.0571429 11.8554622,18.0571429 C10.8739496,18.0571429 9.93277311,17.9361345 9.21008403,17.7142857 C9.09579832,17.6773109 9.00168067,17.6336134 8.89747899,17.5932773 L8.89747899,18.6789916 Z M21.8722689,11.6168067 C23.3478992,12.0672269 23.6571429,12.8672269 23.6571429,13.4588235 L23.6571429,21.4420168 C23.6571429,22.0336134 23.3478992,22.8302521 21.8722689,23.2840336 C21.1428571,23.5058824 20.205042,23.6268908 19.2235294,23.6268908 C18.2453782,23.6268908 17.307563,23.5058824 16.5781513,23.2840336 C16.1243697,23.1462185 15.7915966,22.9714286 15.5327731,22.7831933 C15.2470588,22.9915966 14.897479,23.1630252 14.497479,23.2840336 C13.7714286,23.5058824 12.8336134,23.6268908 11.8521008,23.6268908 C10.8705882,23.6268908 9.92941176,23.5058824 9.20672269,23.2840336 C8.78319328,23.1563025 8.4302521,22.9848739 8.14789916,22.7831933 C7.86218487,22.9915966 7.51596639,23.1630252 7.11596639,23.2840336 C6.38991597,23.5058824 5.45210084,23.6268908 4.47058824,23.6268908 C3.48907563,23.6268908 2.54789916,23.5058824 1.82521008,23.2840336 C1.13277311,23.0722689 0.625210084,22.7529412 0.315966387,22.3529412 C0.14789916,22.2151261 0.0302521008,22.010084 0.0302521008,21.7747899 L0.0302521008,18.9915966 C0.0302521008,18.8504202 0.0504201681,18.7058824 0.087394958,18.5714286 L0.087394958,18.5680672 C0.272268908,17.9260504 0.853781513,17.4487395 1.81176471,17.1529412 C3.2605042,16.7092437 5.65714286,16.712605 7.10588235,17.1529412 C7.21680672,17.1865546 7.31092437,17.2268908 7.40840336,17.2638655 L7.40840336,16.2016807 C7.40840336,16.0571429 7.42857143,15.9159664 7.46554622,15.7815126 L7.46554622,15.7781513 C7.65042017,15.1327731 8.22857143,14.6554622 9.19327731,14.3630252 C10.6386555,13.9193277 13.0453782,13.9193277 14.487395,14.3630252 C14.5983193,14.3966387 14.6890756,14.4336134 14.7865546,14.4739496 L14.7865546,13.4621849 C14.7865546,13.3210084 14.8067227,13.1798319 14.8436975,13.0453782 L14.8436975,13.0386555 C15.0285714,12.3966387 15.6067227,11.9159664 16.5714286,11.6235294 C18.0336134,11.1764706 20.4268908,11.1798319 21.8722689,11.6168067 Z M18.2252101,9.09243697 L14.5647059,5.32436975 C14.2890756,4.98823529 14.2453782,4.58823529 14.4,4.25882353 C14.5546218,3.92941176 14.8705882,3.72436975 15.2268908,3.72436975 L16.6016807,3.71428571 L16.5983193,1.33445378 C16.5983193,0.598319328 17.1865546,0 17.9092437,0 L19.9697479,0 C20.692437,0 21.2806723,0.598319328 21.2806723,1.33109244 L21.2840336,3.71092437 L22.6689076,3.72436975 C23.0184874,3.72436975 23.3378151,3.92941176 23.4890756,4.25882353 C23.6436975,4.58823529 23.5966387,4.98823529 23.3714286,5.27058824 L19.5966387,9.14285714 C19.4991597,9.27394958 19.2806723,9.39831933 19.0386555,9.42521008 C19.005042,9.42857143 18.9680672,9.43193277 18.9344538,9.43193277 C18.7260504,9.43193277 18.5277311,9.36134454 18.3630252,9.22689076 C18.3226891,9.19663866 18.2588235,9.13277311 18.2252101,9.09243697 L18.2252101,9.09243697 Z" id="Bajada-dinero_3Masa"></path>
        </g>
    </g>
</svg>

<svg width="24" height="24" viewBox="0 0 24 24" xmlns="http://www.w3.org/2000/svg"><path d="M.918 6.32c0-.417.332-.754.74-.754h.45c-.014-.174-.037-.336-.037-.52 0-.051.01-.091.01-.142h-.424a.745.745 0 01-.74-.753c0-.417.333-.753.74-.753h.619C2.8 1.227 4.416.037 6.995.037c.961 0 1.802.168 2.5.494a.76.76 0 01.364.998.733.733 0 01-.982.37c-.5-.235-1.136-.356-1.879-.356-1.714 0-2.756.602-3.193 1.855h2.447c.41 0 .74.336.74.753a.747.747 0 01-.74.753H3.566c0 .05-.01.091-.01.141 0 .189.02.353.03.521H6.25c.41 0 .74.337.74.753a.747.747 0 01-.74.753h-2.28c.512.992 1.5 1.473 3.03 1.473.756 0 1.394-.121 1.895-.363a.735.735 0 01.985.36.756.756 0 01-.353 1c-.702.337-1.553.508-2.531.508-2.427 0-4.01-1.048-4.629-2.981h-.709a.742.742 0 01-.74-.75zm20.527 15.519c.636-.195.73-.39.73-.39v-1.022c-.098.04-.192.084-.3.118-.719.221-1.66.342-2.645.342-.985 0-1.926-.12-2.648-.342-.111-.034-.206-.078-.306-.118v1.028c.01.024.12.206.726.39 1.19.353 3.26.353 4.443-.006zm-7.371 0c.383-.118.612-.273.723-.38v-1.086c-.098.037-.189.084-.296.114-.72.222-1.66.343-2.646.343-.984 0-1.926-.12-2.645-.343-.114-.033-.208-.08-.313-.12v1.099c.095.09.313.238.737.37 1.18.362 3.26.362 4.44.003zm-7.382 0c.407-.125.626-.286.723-.384V20.39c-.1.037-.188.08-.299.114-.723.222-1.66.343-2.645.343-.985 0-1.926-.12-2.646-.343-.114-.033-.205-.08-.309-.12v1.085c.094.09.313.239.74.37 1.176.36 3.253.36 4.436 0zm-4.447-3.247a2.082 2.082 0 00-.544.235c.11.07.286.155.551.235 1.173.363 3.264.36 4.44 0 .276-.084.437-.165.545-.235a2.14 2.14 0 00-.551-.239c-1.18-.356-3.264-.356-4.44.004zm7.382-2.79a2.196 2.196 0 00-.545.235c.108.07.27.151.552.239 1.176.36 3.26.36 4.437 0 .262-.081.433-.162.547-.232a2.028 2.028 0 00-.55-.239c-1.174-.363-3.265-.363-4.441-.003zm7.378-2.74a2.36 2.36 0 00-.544.232c.107.07.268.151.55.239 1.174.36 3.265.36 4.438 0 .262-.08.433-.165.548-.232a2.08 2.08 0 00-.552-.239c-1.176-.36-3.26-.363-4.44 0zm-.726 4.572v1.099c.094.09.316.238.733.366 1.173.36 3.264.36 4.437 0 .386-.12.618-.275.726-.383v-1.082c-.098.04-.192.084-.3.117-.725.222-1.663.343-2.645.343-.981 0-1.922-.12-2.645-.343-.111-.033-.205-.077-.306-.117zm.306-2.66c-.114-.033-.205-.08-.31-.12v1.082c.095.09.313.239.74.373 1.173.36 3.26.36 4.437 0 .41-.124.629-.285.726-.383v-1.065c-.1.036-.188.08-.299.114-.72.222-1.66.343-2.645.343-.989 0-1.926-.121-2.65-.343zM8.897 18.68c.095.09.313.239.74.37 1.173.36 3.264.36 4.437 0 .407-.125.622-.283.723-.38V17.6c-.098.037-.189.08-.296.114-.723.222-1.664.343-2.646.343-.981 0-1.922-.12-2.645-.343-.114-.037-.208-.08-.313-.12v1.085zm12.975-7.062c1.476.45 1.785 1.25 1.785 1.842v7.983c0 .592-.31 1.388-1.785 1.842-.73.222-1.667.343-2.648.343-.979 0-1.916-.121-2.646-.343a3.444 3.444 0 01-1.045-.5 3.45 3.45 0 01-1.036.5c-.726.222-1.663.343-2.645.343-.981 0-1.923-.121-2.645-.343a3.605 3.605 0 01-1.06-.5 3.43 3.43 0 01-1.031.5c-.726.222-1.664.343-2.645.343-.982 0-1.923-.121-2.646-.343-.692-.212-1.2-.531-1.509-.931a.751.751 0 01-.286-.578v-2.783c0-.142.02-.286.057-.42v-.004c.185-.642.767-1.12 1.725-1.415 1.449-.444 3.845-.44 5.294 0 .11.034.205.074.302.11v-1.061c0-.145.02-.286.058-.42v-.004c.184-.645.763-1.123 1.727-1.415 1.446-.444 3.852-.444 5.294 0 .111.034.202.07.3.11v-1.01c0-.142.02-.283.057-.418v-.006c.185-.642.763-1.123 1.727-1.415 1.463-.448 3.856-.444 5.301-.007zm-3.647-2.525l-3.66-3.768c-.276-.336-.32-.736-.165-1.065a.91.91 0 01.827-.535l1.375-.01-.004-2.38C16.598.598 17.187 0 17.91 0h2.06c.723 0 1.312.598 1.312 1.331l.003 2.38 1.385.013c.35 0 .669.205.82.535.155.33.108.73-.118 1.012l-3.774 3.872c-.098.13-.316.255-.558.282a.896.896 0 01-.676-.198 1.04 1.04 0 01-.138-.135z" fill="#5CB615" fill-rule="nonzero"/></svg>
